!!!COM: Bach, Johann Sebastian
!!!OTL: Das walt' Gott Vater und Gott Sohn
!!!ONM: No. 224
!!!OCL: Erk
!!!YOE: Riemenschneider, Albert
!!!OPR: 371 Harmonized Chorales and 69 Chorale Melodies with Figured Bass
!!!OPT: Bach Chorale Harmonizations
**kern	**kern	**kern	**kern
! bass	! tenor	! alto	! soprano
*M4/4	*M4/4	*M4/4	*M4/4
*F:	*F:	*F:	*F:
4F	4A	4c	4f
=1	=1	=1	=1
4F	4c	4f	4a
8AA	4c	4f	4cc
8BB-	.	.	.
4C	4G	4e	4cc
4C#	4A	[4e	4a
=2	=2	=2	=2
4D	4A	8e]	4f
.	.	8d	.
4E	4G	4c	4g
4F;	4F;	4c;	4a;
4F	4A	4c	4f
=3	=3	=3	=3
[4F	4A	4f	4cc
8F]	4c	4g	4cc
8E	.	.	.
4D	4f	8a	4dd
.	.	8bn	.
8A	4e	4cc	4ee
8G	.	.	.
=4	=4	=4	=4
4F	4a	[4cc	8ff
.	.	.	8ee
4G	8d	8cc]	4dd
.	16g	8bn	.
.	16f	.	.
4C;	4e;	4g;	4cc;
4E	4c	[4g	4cc
=5	=5	=5	=5
4F	4c	8g]	4a
.	.	16f	.
.	.	16e	.
8AA	[4c	4f	4cc
8FF	.	.	.
4BB-	8c]	4f	4dd
.	[8B-	.	.
[4F	8B-]	4f	4cc
.	8A	.	.
=6	=6	=6	=6
8F]	4G	8g	4b-
8E	.	8c	.
4F	8.A	8c	4a
.	.	[8f	.
.	16B-	.	.
4C;	4c;	8f]	4g;
.	.	8e;	.
4E	4c	4g	4cc
=7	=7	=7	=7
4F	4c	4f	8a
.	.	.	8b-
4AA	4c	4f	4cc
4BB-	4d	4f	4b-
4C	8c	4e	8a
.	8B-	.	8g
=8	=8	=8	=8
4D	8A	16d	4f
.	.	16e	.
.	16G	[8f	.
.	16F	.	.
4C	8.c	8f]	4g
.	.	8e	.
.	16B-	.	.
4F;	4A;	4c;	4f;
==	==	==	==
*-	*-	*-	*-
!!!CDT: 1685/3//-1750/7/28
!!!OCY: Deutschland
!!!AGN: chorale
!!!AST: Baroque
!!!AIN: vox
!!!YOY: 1941
!!!PPP: New York; London
!!!PPR: G. Schirmer
!!!ENC: David Huron
!!!EED: David Huron
!!!YEN: United States of America
!!!YER: 1992
!!!YEC: Copyright 1992 David Huron
!!!YEM: Rights to all derivative electronic formats reserved.
!!!YER: March 20, 1996
!!!AMT: simple quadruple
!!!EEV: 1.1
